X: 19
T: DONALD IAIN RANKINE
C: Andrew Rankine
R: jig
B: "The Complete Andrew Rankine Collection of Scottish Country Dance Tunes" p.24
Z: 2017 John Chambers <jc:trillian.mit.edu>
M: 6/8
L: 1/8
K: F
|:\
"F"Acc FAA | CFF A,CC | A,CC FAA | "C7"FEE E3 |\
CEE EGG | GBB Bcc | cee [1 ecc | "F"BAA A3 :|[2 "C7"ede |
"F"gff f3 [|\
"F"aff cff | aff dcc | aff "Fm"cff | "C7"fee e3 |\
gee cee | gee edc | gee cee | "F"dcc c3 |]
"F"aff cff | aff dcc | aff "F7"cff | "Bb"fdd d3 |\
dBB FBB | "F"CFF Acc | "C7"cee ede | "F"gff f3 |]
